src/shared/assets/image/task-list.svg

<svg width="24" height="22" viewBox="0 0 24 22" fill="none" xmlns="http://www.w3.org/2000/svg">
<g clip-path="url(#clip0_1_792)">
<path opacity="0.962" fill-rule="evenodd" clip-rule="evenodd" d="M-0.0234375 3.83276C-0.0234375 3.70428 -0.0234375 3.57581 -0.0234375 3.44734C0.170929 3.21635 0.405304 3.18066 0.679688 3.34028C0.984375 3.61864 1.28906 3.89699 1.59375 4.17535C2.85156 3.02624 4.10938 1.87712 5.36719 0.728011C5.7165 0.616964 5.93527 0.731163 6.02344 1.0706C5.99559 1.19009 5.94089 1.29715 5.85938 1.39178C4.53906 2.598 3.21875 3.80421 1.89844 5.01042C1.71874 5.12831 1.53124 5.14257 1.33594 5.05324C0.888984 4.63776 0.435862 4.23093 -0.0234375 3.83276Z" fill="#14FF49"/>
<path opacity="0.952" fill-rule="evenodd" clip-rule="evenodd" d="M-0.0234375 11.1129C-0.0234375 10.9844 -0.0234375 10.8559 -0.0234375 10.7274C0.128333 10.5738 0.315833 10.5238 0.539062 10.5776C0.88987 10.8623 1.23362 11.1549 1.57031 11.4554C2.81186 10.3426 4.04623 9.22204 5.27344 8.09375C5.64141 7.91766 5.87578 8.01046 5.97656 8.37211C5.97586 8.4635 5.95242 8.54915 5.90625 8.62906C4.53906 9.87811 3.17188 11.1271 1.80469 12.3762C1.62649 12.4557 1.45461 12.4414 1.28906 12.3333C0.840802 11.931 0.403304 11.5242 -0.0234375 11.1129Z" fill="#14FF49"/>
<path opacity="0.955" fill-rule="evenodd" clip-rule="evenodd" d="M7.67335 9.44268C7.98847 9.52135 8.10799 9.70695 8.03193 9.9994C7.97326 10.0947 7.88558 10.159 7.76897 10.1921C6.95008 10.2812 6.68713 10.6737 6.98011 11.3698C7.23971 11.6352 7.5664 11.7352 7.96021 11.6695C12.6615 11.6695 17.3629 11.6695 22.0642 11.6695C22.703 11.7319 23.0695 11.4821 23.1638 10.9201C23.0466 10.3804 22.6801 10.1449 22.0642 10.2135C18.2838 10.2277 14.5068 10.2134 10.7332 10.1707C10.5544 10.038 10.4986 9.86669 10.5659 9.65681C10.6573 9.53775 10.7768 9.46637 10.9244 9.44268C14.7652 9.43553 18.6059 9.44268 22.4466 9.4641C23.2263 9.55617 23.7363 9.93443 23.9766 10.5989C23.9766 10.8273 23.9766 11.0557 23.9766 11.2841C23.7363 11.9486 23.2263 12.3269 22.4466 12.419C17.4744 12.4475 12.5022 12.4475 7.52992 12.419C6.58233 12.291 6.07238 11.7986 6 10.9415C6.09538 10.0282 6.65313 9.52855 7.67335 9.44268Z" fill="#14FF49"/>
<path fill-rule="evenodd" clip-rule="evenodd" d="M9.77344 10.1707C9.64669 10.2227 9.52167 10.2227 9.39844 10.1707C9.3045 10.1205 9.23419 10.0491 9.1875 9.95659C9.19195 9.55281 9.40289 9.41718 9.82031 9.54977C10.0179 9.77588 10.0023 9.98289 9.77344 10.1707Z" fill="#14FF49"/>
<path opacity="0.955" fill-rule="evenodd" clip-rule="evenodd" d="M7.67553 17.0027C7.99106 17.0814 8.11074 17.2669 8.03457 17.5594C7.97584 17.6547 7.88804 17.719 7.77128 17.7521C6.95132 17.8412 6.68802 18.2337 6.98138 18.9298C7.24133 19.1952 7.56844 19.2952 7.96277 19.2295C12.6702 19.2295 17.3777 19.2295 22.0851 19.2295C22.7248 19.2919 23.0918 19.0421 23.1862 18.4801C23.0688 17.9404 22.7018 17.7049 22.0851 17.7735C18.2998 17.7876 14.5179 17.7734 10.7394 17.7307C10.5603 17.598 10.5045 17.4267 10.5718 17.2168C10.6634 17.0978 10.7831 17.0264 10.9309 17.0027C14.7766 16.9955 18.6224 17.0027 22.4681 17.0241C23.2488 17.1162 23.7594 17.4944 24 18.1589C24 18.3873 24 18.6157 24 18.8441C23.7594 19.5086 23.2488 19.8869 22.4681 19.979C17.4894 20.0075 12.5106 20.0075 7.53191 19.979C6.58309 19.851 6.07248 19.3586 6 18.5015C6.09551 17.5882 6.65398 17.0885 7.67553 17.0027Z" fill="#14FF49"/>
<path fill-rule="evenodd" clip-rule="evenodd" d="M9.42188 17.7307C9.29513 17.7827 9.17011 17.7827 9.04688 17.7307C8.95294 17.6805 8.88262 17.6091 8.83594 17.5166C8.84039 17.1128 9.05133 16.9772 9.46875 17.1098C9.66633 17.3359 9.65072 17.5429 9.42188 17.7307Z" fill="#14FF49"/>
<path opacity="0.955" fill-rule="evenodd" clip-rule="evenodd" d="M7.67553 2.00268C7.99106 2.08135 8.11074 2.26695 8.03457 2.5594C7.97584 2.65472 7.88804 2.71896 7.77128 2.7521C6.95132 2.84122 6.68802 3.23375 6.98138 3.92977C7.24133 4.19523 7.56844 4.29518 7.96277 4.22953C12.6702 4.22953 17.3777 4.22953 22.0851 4.22953C22.7248 4.29193 23.0918 4.04209 23.1862 3.48011C23.0688 2.94044 22.7018 2.70491 22.0851 2.77352C18.2998 2.78765 14.5179 2.77339 10.7394 2.73069C10.5603 2.59798 10.5045 2.42668 10.5718 2.2168C10.6634 2.09775 10.7831 2.02636 10.9309 2.00268C14.7766 1.99553 18.6224 2.00268 22.4681 2.02409C23.2488 2.11617 23.7594 2.49443 24 3.15893C24 3.38731 24 3.61574 24 3.84412C23.7594 4.50862 23.2488 4.88688 22.4681 4.97896C17.4894 5.00752 12.5106 5.00752 7.53191 4.97896C6.58309 4.85104 6.07248 4.35856 6 3.50153C6.09551 2.58817 6.65398 2.08854 7.67553 2.00268Z" fill="#14FF49"/>
<path fill-rule="evenodd" clip-rule="evenodd" d="M9.42188 2.73071C9.29513 2.7827 9.17011 2.7827 9.04688 2.73071C8.95294 2.68048 8.88262 2.60909 8.83594 2.51659C8.84039 2.1128 9.05133 1.97718 9.46875 2.10976C9.66633 2.33587 9.65072 2.54289 9.42188 2.73071Z" fill="#14FF49"/>
<path opacity="0.946" fill-rule="evenodd" clip-rule="evenodd" d="M-0.0234375 18.4357C-0.0234375 18.3073 -0.0234375 18.1788 -0.0234375 18.0503C0.140304 17.8879 0.343429 17.8379 0.585938 17.9004C0.906924 18.2009 1.23505 18.4935 1.57031 18.7783C2.82748 17.6512 4.07748 16.5164 5.32031 15.3738C5.88333 15.246 6.07866 15.4387 5.90625 15.952C4.55469 17.1867 3.20312 18.4215 1.85156 19.6562C1.6374 19.7513 1.43427 19.737 1.24219 19.6134C0.80955 19.2253 0.387676 18.8328 -0.0234375 18.4357Z" fill="#14FF49"/>
</g>
<defs>
<clipPath id="clip0_1_792">
<rect width="24" height="21.9259" fill="white"/>
</clipPath>
</defs>
</svg>

<svg width="24" height="22" fill="none" xmlns="http://www.w3.org/2000/svg"><g clip-path="url(#a)" fill-rule="evenodd" clip-rule="evenodd" fill="#14FF49"><path opacity=".96" d="M-.02 3.83v-.38c.2-.23.43-.27.7-.11l.91.84L5.37.73c.35-.11.57 0 .65.34a.74.74 0 0 1-.16.32L1.9 5.01a.55.55 0 0 1-.56.04L-.02 3.83Z"/><path opacity=".95" d="M-.02 11.11v-.38c.15-.16.34-.2.56-.15.35.28.7.57 1.03.88 1.24-1.12 2.48-2.24 3.7-3.37.37-.17.6-.08.7.28 0 .1-.02.18-.06.26l-4.1 3.75a.51.51 0 0 1-.52-.05c-.45-.4-.89-.8-1.31-1.22ZM7.67 9.44c.32.08.44.27.36.56a.44.44 0 0 1-.26.2c-.82.08-1.08.47-.79 1.17.26.27.59.37.98.3h14.1c.64.06 1.01-.19 1.1-.75-.11-.54-.48-.78-1.1-.7-3.78 0-7.55 0-11.33-.05-.18-.13-.23-.3-.16-.51.09-.12.2-.2.35-.22 3.85 0 7.69 0 11.53.02.78.1 1.29.47 1.53 1.14v.68c-.24.67-.75 1.05-1.53 1.14-4.98.03-9.95.03-14.92 0-.95-.13-1.46-.62-1.53-1.48.1-.91.65-1.41 1.67-1.5Z"/><path d="M9.77 10.17a.47.47 0 0 1-.37 0 .49.49 0 0 1-.21-.21c0-.4.21-.54.63-.41.2.23.18.43-.05.62Z"/><path opacity=".95" d="M7.68 17c.31.08.43.27.35.56a.44.44 0 0 1-.26.2c-.82.08-1.08.47-.79 1.17.26.27.59.37.98.3H22.1c.63.06 1-.19 1.1-.75-.12-.54-.49-.78-1.1-.7-3.79 0-7.57 0-11.35-.05-.18-.13-.24-.3-.17-.51.1-.12.21-.2.36-.22 3.85 0 7.7 0 11.54.02.78.1 1.29.47 1.53 1.14v.68c-.24.67-.75 1.05-1.53 1.14-4.98.03-9.96.03-14.94 0-.95-.13-1.46-.62-1.53-1.48.1-.91.65-1.41 1.68-1.5Z"/><path d="M9.42 17.73a.47.47 0 0 1-.37 0 .49.49 0 0 1-.21-.21c0-.4.21-.54.63-.41.2.23.18.43-.05.62Z"/><path opacity=".95" d="M7.68 2c.31.08.43.27.35.56a.44.44 0 0 1-.26.2c-.82.08-1.08.47-.79 1.17.26.27.59.37.98.3H22.1c.63.06 1-.19 1.1-.75-.12-.54-.49-.78-1.1-.7-3.79 0-7.57 0-11.35-.05-.18-.13-.24-.3-.17-.51.1-.12.21-.2.36-.22 3.85 0 7.7 0 11.54.02.78.1 1.29.47 1.53 1.14v.68c-.24.67-.75 1.05-1.53 1.14-4.98.03-9.96.03-14.94 0C6.58 4.85 6.07 4.36 6 3.5c.1-.91.65-1.41 1.68-1.5Z"/><path d="M9.42 2.73a.47.47 0 0 1-.37 0 .49.49 0 0 1-.21-.21c0-.4.21-.54.63-.41.2.23.18.43-.05.62Z"/><path opacity=".95" d="M-.02 18.44v-.39a.6.6 0 0 1 .6-.15l.99.88 3.75-3.4c.56-.13.76.06.59.57l-4.06 3.7a.6.6 0 0 1-.6-.04c-.44-.38-.86-.78-1.27-1.17Z"/></g><defs><clipPath id="a"><path fill="#fff" d="M0 0h24v21.93H0z"/></clipPath></defs></svg>
